X: 20382
M: C|
L: 1/8
K: A
E2 |\
|: cd |\
ecec eaga | fedc dcBA | GABc defg | afed e2E2 |\


